dist/img/makiazh.svg

<svg width="116" height="144" viewBox="0 0 116 144" fill="none" xmlns="http://www.w3.org/2000/svg">
<path d="M52.4915 136.119C81.0266 136.119 104.159 113.887 104.159 86.4625C104.159 59.0381 81.0266 36.8062 52.4915 36.8062C23.9565 36.8062 0.824219 59.0381 0.824219 86.4625C0.824219 113.887 23.9565 136.119 52.4915 136.119Z" fill="#FFF4F4"/>
<path d="M57.3419 143.086C56.4156 143.088 55.5236 142.75 54.8481 142.14C54.1726 141.531 53.7646 140.697 53.7075 139.809L46.8125 35.4219H67.8114L60.924 139.816C60.9147 140.015 60.8821 140.213 60.8268 140.405C60.6436 141.163 60.2002 141.84 59.568 142.326C58.9358 142.813 58.1516 143.08 57.3419 143.086ZM48.0015 36.5L54.8292 139.744C54.863 140.358 55.1447 140.936 55.6144 141.354C55.9371 141.644 56.3334 141.847 56.7634 141.943C57.1935 142.039 57.6423 142.025 58.0648 141.902C58.4874 141.779 58.8689 141.551 59.1712 141.242C59.4735 140.933 59.686 140.552 59.7873 140.139C59.8272 140.013 59.8498 139.883 59.8546 139.751L66.6748 36.5H48.0015Z" fill="#333333"/>
<path d="M64.6252 67.3763C64.6252 67.3763 63.7578 64.8896 57.304 64.8896C50.8503 64.8896 49.9828 67.3547 49.9753 67.3763L48.8984 67.096C48.8984 66.9594 49.8706 63.8115 57.304 63.8115C64.7374 63.8115 65.6722 66.9594 65.7096 67.096L64.6252 67.3763Z" fill="#333333"/>
<path d="M50.6982 38.8222L49.5781 38.8809L50.3104 51.7915L51.4304 51.7328L50.6982 38.8222Z" fill="#333333"/>
<path d="M51.4286 55.1721L50.3086 55.2319L50.6342 60.8653L51.7543 60.8055L51.4286 55.1721Z" fill="#333333"/>
<path d="M67.722 35.8641L66.7424 35.3466C66.8396 35.1813 76.2996 18.5214 74.7367 10.479C73.084 1.96212 62.0236 1.04215 57.3048 1.04215C52.586 1.04215 41.5182 1.96211 39.8655 10.5149C38.3026 18.5574 47.77 35.2173 47.8598 35.3826L46.8801 35.9001C46.4838 35.1814 37.1584 18.737 38.7587 10.3136C40.6208 0.747473 53.4236 0 57.3048 0C61.1861 0 73.9888 0.718724 75.8434 10.3136C77.4812 18.7011 68.1259 35.167 67.722 35.8641Z" fill="#333333"/>
<path d="M52.9792 78.3276L51.8594 78.3911L54.138 115.47L55.2578 115.406L52.9792 78.3276Z" fill="#333333"/>
<path d="M36.1873 140.836C34.0927 140.833 32 140.711 29.9205 140.47C24.9849 139.888 21.2308 138.802 18.1049 137.042C13.0271 134.167 9.53478 129.43 6.51356 124.73L6.14713 124.148C4.60661 121.74 3.02122 119.253 0.747826 117.521L0 116.932L0.912349 116.594C7.5817 114.121 14.7092 112.993 21.8515 113.281C28.0477 113.436 34.1231 114.963 39.6049 117.744C45.1388 120.555 49.5564 125.038 52.1758 130.501L51.1513 130.932C48.623 125.698 44.3776 121.406 39.0664 118.714C33.7332 116.024 27.8278 114.549 21.8066 114.402C15.1342 114.132 8.47173 115.126 2.19861 117.327C4.2327 119.11 5.69843 121.402 7.1193 123.623L7.48572 124.205C10.4322 128.791 13.8273 133.405 18.7031 136.15C21.6944 137.839 25.3064 138.881 30.085 139.442C38.356 140.405 46.0362 139.442 52.288 136.646L52.7591 137.631C47.5426 139.842 41.8878 140.936 36.1873 140.836Z" fill="#333333"/>
<path d="M51.1434 135.849C49.7824 133.937 47.8007 132.55 45.2356 131.069C33.8589 124.49 21.0164 120.608 7.76953 119.742L7.84432 118.671C21.2705 119.553 34.2851 123.495 45.8114 130.171C48.1447 131.522 50.5078 133.046 52.0708 135.267L51.1434 135.849Z" fill="#333333"/>
<path d="M49.8631 114.19C49.5758 104.118 45.8318 94.4203 39.2141 86.6058C32.7498 79.0967 23.8754 73.8616 13.9824 71.7211C15.478 76.0334 15.1266 80.7482 14.8125 85.2762C14.6928 87.0155 14.5657 88.8123 14.5433 90.5444C14.476 97.9416 16.3346 105.238 19.95 111.768L18.9629 112.271C15.2776 105.579 13.3908 98.1083 13.4739 90.5372C13.4739 88.7692 13.6234 86.9436 13.7431 85.2043C14.0796 80.468 14.4236 75.5735 12.6513 71.1965L12.2773 70.2837L13.2794 70.4706C23.8123 72.5083 33.2962 77.964 40.1414 85.923C46.916 93.923 50.7493 103.851 51.0446 114.162L49.8631 114.19Z" fill="#333333"/>
<path d="M36.7719 114.783C35.3848 108.61 33.5404 102.541 31.253 96.6208C28.9682 90.7254 25.6831 85.2343 21.5312 80.3706L22.3838 79.6519C26.622 84.5966 29.9779 90.1826 32.3149 96.1824C34.6299 102.165 36.4967 108.3 37.9012 114.538L36.7719 114.783Z" fill="#333333"/>
<path d="M31.1597 94.759L19.6133 89.498L20.0994 88.5277L30.2848 93.1634L31.758 83.9854L32.8648 84.1507L31.1597 94.759Z" fill="#333333"/>
<path d="M36.051 109.213L23.9961 103.326L24.5046 102.363L35.4229 107.696L39.1919 97.4976L40.2464 97.8569L36.051 109.213Z" fill="#333333"/>
<path d="M31.776 131.342L31.2227 130.401L37.9157 126.822L34.6627 120.612L35.6647 120.123L39.3964 127.26L31.776 131.342Z" fill="#333333"/>
<path d="M19.0483 126.778L18.5547 125.808L25.8834 122.401L20.9477 117.09L21.7853 116.371L27.7081 122.753L19.0483 126.778Z" fill="#333333"/>
<path d="M59.8027 141.196L59.7578 140.103C59.7777 140.025 59.7927 139.946 59.8027 139.866V139.751L61.1413 119.627L78.9096 54.6836L92.6547 58.8881L60.902 140.254C60.8696 140.338 60.8321 140.419 60.7898 140.499L59.8027 141.196ZM62.2555 119.828L61.1488 136.546L91.1889 59.5924L79.6949 56.0779L62.2555 119.828Z" fill="#333333"/>
<path d="M82.9715 83.6695L81.8572 83.5689C81.8572 83.4898 81.947 81.5348 77.9985 80.3274C74.0499 79.1199 72.9506 80.7658 72.9058 80.8305L71.9336 80.2915C71.9934 80.1908 73.4666 77.8046 78.3424 79.2996C83.2183 80.7946 82.9864 83.5545 82.9715 83.6695Z" fill="#333333"/>
<path d="M75.9471 71.1958L74.6797 75.7134L75.7627 75.994L77.0302 71.4765L75.9471 71.1958Z" fill="#333333"/>
<path d="M72.8566 82.6115L67.4102 102.229L68.494 102.507L73.9404 82.8894L72.8566 82.6115Z" fill="#333333"/>
<path d="M92.1185 59.7575L91.7296 58.7513L106.058 53.6196C105.856 51.37 104.241 39.8633 92.5971 36.2912C80.9535 32.7192 72.69 41.2289 71.1719 42.9466L79.7794 55.093L78.8521 55.6967L69.7734 42.9035L70.0202 42.5944C70.11 42.4794 79.2708 31.0949 92.9261 35.2635C106.581 39.4321 107.225 53.828 107.225 53.9502V54.3383L92.1185 59.7575Z" fill="#333333"/>
<path d="M36.5223 66.0793C36.4355 64.6822 36.0086 63.3242 35.2761 62.1146C34.5435 60.9049 33.5257 59.8775 32.3045 59.1149L31.6016 58.6693L32.3045 58.2237C33.5188 57.4541 34.5314 56.4249 35.2631 55.2168C35.9947 54.0086 36.4257 52.6541 36.5223 51.2593H37.644C37.7308 52.6564 38.1577 54.0144 38.8902 55.224C39.6228 56.4337 40.6406 57.4611 41.8617 58.2237L42.5647 58.6693L41.8617 59.1149C40.6459 59.8829 39.6321 60.9116 38.9002 62.1201C38.1683 63.3286 37.7383 64.6839 37.644 66.0793H36.5223ZM33.5758 58.6693C35.1936 59.8588 36.4129 61.478 37.0831 63.3266C37.7533 61.478 38.9727 59.8588 40.5904 58.6693C38.9727 57.4798 37.7533 55.8606 37.0831 54.012C36.4129 55.8606 35.1936 57.4798 33.5758 58.6693Z" fill="#333333"/>
<path d="M41.8546 73.7619C41.263 73.7619 40.6846 73.5933 40.1927 73.2774C39.7008 72.9615 39.3174 72.5125 39.091 71.9872C38.8646 71.4619 38.8053 70.8839 38.9208 70.3262C39.0362 69.7685 39.3211 69.2563 39.7394 68.8542C40.1578 68.4522 40.6908 68.1784 41.271 68.0675C41.8513 67.9565 42.4527 68.0134 42.9993 68.231C43.5459 68.4486 44.0131 68.8171 44.3418 69.2899C44.6704 69.7626 44.8459 70.3185 44.8459 70.8871C44.8459 71.6495 44.5307 72.3808 43.9698 72.9199C43.4088 73.4591 42.6479 73.7619 41.8546 73.7619ZM41.8546 69.1262C41.4875 69.1262 41.1286 69.2309 40.8235 69.4271C40.5183 69.6233 40.2806 69.9021 40.1404 70.2282C40.0003 70.5543 39.964 70.9131 40.0362 71.259C40.1083 71.605 40.2857 71.9226 40.5459 72.1715C40.806 72.4205 41.1371 72.5897 41.4974 72.6577C41.8576 72.7256 42.2308 72.6893 42.5695 72.5533C42.9083 72.4173 43.1974 72.1877 43.4003 71.8937C43.6032 71.5996 43.7107 71.2543 43.7092 70.9014C43.7122 70.6656 43.6664 70.4315 43.5745 70.2127C43.4826 69.994 43.3465 69.7949 43.174 69.6271C43.0015 69.4593 42.796 69.3261 42.5695 69.2352C42.343 69.1443 42.1 69.0975 41.8546 69.0975V69.1262Z" fill="#333333"/>
<path d="M43.5077 66.3128C43.1616 66.3128 42.8233 66.2142 42.5355 66.0294C42.2477 65.8446 42.0235 65.5819 41.891 65.2746C41.7586 64.9673 41.7239 64.6291 41.7914 64.3029C41.859 63.9767 42.0256 63.677 42.2703 63.4418C42.5151 63.2066 42.8269 63.0464 43.1663 62.9815C43.5058 62.9166 43.8576 62.95 44.1774 63.0772C44.4971 63.2045 44.7704 63.4201 44.9627 63.6967C45.155 63.9732 45.2576 64.2984 45.2576 64.631C45.2576 65.077 45.0733 65.5048 44.7451 65.8202C44.4169 66.1356 43.9718 66.3128 43.5077 66.3128ZM43.5077 64.0273C43.3835 64.0273 43.262 64.0627 43.1587 64.129C43.0554 64.1954 42.9749 64.2897 42.9274 64.4C42.8798 64.5103 42.8674 64.6317 42.8916 64.7488C42.9159 64.8659 42.9757 64.9735 43.0635 65.0579C43.1514 65.1423 43.2633 65.1998 43.3852 65.2231C43.507 65.2464 43.6333 65.2345 43.7481 65.1888C43.8629 65.1431 43.961 65.0657 44.03 64.9664C44.099 64.8671 44.1359 64.7504 44.1359 64.631C44.1359 64.4709 44.0697 64.3173 43.9519 64.2041C43.8341 64.0909 43.6743 64.0273 43.5077 64.0273Z" fill="#333333"/>
<path d="M35.0505 76.0149C34.6172 76.0149 34.1935 75.8914 33.8332 75.66C33.4728 75.4286 33.192 75.0997 33.0262 74.7149C32.8603 74.3301 32.8169 73.9067 32.9015 73.4982C32.986 73.0897 33.1947 72.7145 33.5011 72.42C33.8076 72.1255 34.198 71.9249 34.623 71.8437C35.0481 71.7624 35.4886 71.8041 35.889 71.9635C36.2894 72.1229 36.6316 72.3928 36.8724 72.7391C37.1132 73.0854 37.2416 73.4925 37.2416 73.909C37.2416 74.4675 37.0108 75.0032 36.5999 75.3981C36.189 75.793 35.6316 76.0149 35.0505 76.0149ZM35.0505 72.8885C34.8387 72.8885 34.6316 72.9489 34.4556 73.0622C34.2796 73.1754 34.1425 73.3364 34.0618 73.5246C33.9811 73.7128 33.9604 73.9198 34.0022 74.1194C34.0441 74.3189 34.1467 74.5021 34.297 74.6455C34.4473 74.789 34.6386 74.8863 34.8465 74.9251C35.0544 74.9639 35.2697 74.9426 35.465 74.8637C35.6602 74.7848 35.8267 74.6519 35.9433 74.482C36.0599 74.312 36.1214 74.1126 36.1199 73.909C36.1179 73.6377 36.0044 73.3781 35.8041 73.187C35.6037 72.9958 35.3328 72.8885 35.0505 72.8885Z" fill="#333333"/>
<path d="M59.8489 139.888L64.1639 128.862L88.0046 91.1153C88.1915 90.8782 89.074 90.0229 91.5343 91.5466C93.7778 92.9481 93.5385 94.1124 93.4637 94.328L93.3964 94.4646L60.7538 140.333C60.6923 140.449 60.5857 140.536 60.4573 140.575C60.329 140.615 60.1895 140.604 60.0695 140.545C59.9495 140.486 59.8589 140.384 59.8175 140.26C59.7761 140.137 59.7874 140.003 59.8489 139.888ZM65.151 129.38L62.6906 135.676L92.3644 93.9902C92.3644 93.8105 92.1625 93.2715 90.8687 92.4665C89.575 91.6616 88.9917 91.7478 88.8571 91.7478L65.151 129.38Z" fill="#333333"/>
<path d="M90.9415 98.3173L92.3699 94.0049C92.3699 94.0049 92.3699 93.3868 90.8742 92.4597C89.3786 91.5325 88.8401 91.741 88.8401 91.7769L87.9727 91.0582L102.63 70.4956L106.87 73.1261L90.9415 98.3173ZM89.6254 90.7132C90.296 90.8861 90.9308 91.168 91.5024 91.5469C92.1039 91.8944 92.6316 92.348 93.0579 92.8837L105.345 73.4783L102.959 71.933L89.6254 90.7132Z" fill="#333333"/>
<path d="M103.341 71.2857L102.227 71.1635C102.279 70.7539 103.513 61.1014 108.007 59.053C109.503 58.3846 111.133 58.5931 112.883 59.6783L112.27 60.5839C110.849 59.6999 109.608 59.5202 108.486 60.0305C104.552 61.8129 103.356 71.2138 103.341 71.2857Z" fill="#333333"/>
<path d="M106.4 73.7441L105.816 72.8241C105.906 72.7738 114.297 67.8506 114.364 63.6676C114.364 62.4745 113.698 61.4611 112.27 60.5843L112.883 59.6787C114.633 60.7568 115.508 62.108 115.486 63.682C115.411 68.4615 106.766 73.5357 106.4 73.7441Z" fill="#333333"/>
<path d="M11.163 111.947C7.63562 105.375 5.6714 98.1314 5.41228 90.7403C5.15316 83.3492 6.6056 75.9951 9.66467 69.2093C12.7238 62.4236 17.3131 56.3757 23.101 51.5025C28.8889 46.6294 35.7309 43.0529 43.1326 41.0312L43.4392 42.0662C32.8134 44.9894 23.4638 51.1523 16.7993 59.6264C10.1348 68.1004 6.51633 78.4266 6.48911 89.0489C6.4628 96.8457 8.40267 104.533 12.1427 111.451L11.163 111.947Z" fill="#333333"/>
<path d="M65.254 138.688L65.082 137.624C89.6033 134.03 108.097 113.259 108.097 89.3763C108.096 85.73 107.675 82.095 106.841 78.538L107.932 78.3008C109.509 84.9764 109.64 91.8924 108.317 98.6187C106.995 105.345 104.247 111.738 100.244 117.4C96.2411 123.063 91.0693 127.873 85.0499 131.533C79.0306 135.192 72.2923 137.623 65.254 138.673V138.688Z" fill="#333333"/>
<path d="M42.7291 15.8908C42.362 14.4594 42.3234 12.9684 42.6159 11.5213C42.9083 10.0741 43.5249 8.70545 44.4228 7.5102C45.3207 6.31496 46.4784 5.32177 47.8156 4.59952C49.1528 3.87728 50.6375 3.44328 52.1666 3.32764L52.2564 4.39853C50.8906 4.50254 49.5647 4.89041 48.3702 5.53533C47.1757 6.18025 46.1413 7.06683 45.3384 8.13374C44.5355 9.20065 43.9833 10.4224 43.72 11.7146C43.4567 13.0068 43.4886 14.3385 43.8134 15.6177L42.7291 15.8908Z" fill="#333333"/>
<path d="M44.2244 17.9776L43.1211 18.1724L43.8427 21.9471L44.9459 21.7523L44.2244 17.9776Z" fill="#333333"/>
<path d="M91.5427 42.832L90.4883 42.4726C91.0522 40.9543 91.5266 39.4066 91.9091 37.8369L93.001 38.0885C92.6094 39.6951 92.1225 41.2788 91.5427 42.832Z" fill="#333333"/>
<path d="M83.8627 42.0918H82.7709C82.7759 40.7349 82.6985 39.379 82.5391 38.0309L83.6533 37.9087C83.8087 39.2979 83.8786 40.6947 83.8627 42.0918Z" fill="#333333"/>
<path d="M75.9929 44.7651C75.691 43.7967 75.2234 42.8834 74.6094 42.0627L75.5142 41.4302C76.2016 42.3475 76.7271 43.3674 77.0697 44.4488L75.9929 44.7651Z" fill="#333333"/>
<path d="M99.6743 42.7095L96.4766 45.1611L97.1761 46.0039L100.374 43.5523L99.6743 42.7095Z" fill="#333333"/>
<path d="M102.687 49.6453L99.8477 50.5508L100.201 51.5739L103.04 50.6684L102.687 49.6453Z" fill="#333333"/>
</svg>

<svg xmlns="http://www.w3.org/2000/svg" fill="none" viewBox="0 0 116 144"><path fill="#FFF4F4" d="M52.492 136.119c28.535 0 51.667-22.232 51.667-49.656 0-27.425-23.132-49.657-51.668-49.657C23.957 36.806.825 59.038.825 86.463c0 27.424 23.132 49.656 51.668 49.656z"/><path fill="#333" d="M57.342 143.086a3.71 3.71 0 0 1-2.494-.946 3.438 3.438 0 0 1-1.14-2.331L46.813 35.422H67.81l-6.887 104.394c-.01.199-.042.397-.097.589a3.45 3.45 0 0 1-1.259 1.921 3.694 3.694 0 0 1-2.226.76zM48.002 36.5l6.827 103.244c.034.614.316 1.192.785 1.61.323.29.72.493 1.15.589.43.096.878.082 1.3-.041a2.54 2.54 0 0 0 1.107-.66c.303-.309.515-.69.616-1.103.04-.126.063-.256.068-.388L66.675 36.5H48.002z"/><path fill="#333" d="M64.625 67.376s-.867-2.486-7.321-2.486-7.321 2.465-7.329 2.486l-1.077-.28c0-.137.973-3.285 8.406-3.285 7.433 0 8.368 3.148 8.406 3.285l-1.085.28zM50.698 38.822l-1.12.059.732 12.91 1.12-.058-.732-12.91zM51.429 55.172l-1.12.06.325 5.633 1.12-.06-.325-5.633zM67.722 35.864l-.98-.517c.098-.166 9.558-16.826 7.995-24.868-1.653-8.517-12.713-9.437-17.432-9.437-4.719 0-15.787.92-17.44 9.473-1.562 8.042 7.905 24.702 7.995 24.868l-.98.517c-.396-.719-9.722-17.163-8.121-25.586C40.62.747 53.424 0 57.305 0c3.881 0 16.684.719 18.538 10.314 1.638 8.387-7.717 24.853-8.121 25.55zM52.98 78.328l-1.12.063 2.278 37.079 1.12-.064-2.279-37.078zM36.187 140.836a55.126 55.126 0 0 1-6.266-.366c-4.936-.582-8.69-1.668-11.816-3.428-5.078-2.875-8.57-7.612-11.591-12.312l-.367-.582c-1.54-2.408-3.126-4.895-5.4-6.627L0 116.932l.912-.338a54.01 54.01 0 0 1 20.94-3.313 41.562 41.562 0 0 1 17.753 4.463c5.534 2.811 9.951 7.294 12.57 12.757l-1.024.431c-2.528-5.234-6.773-9.526-12.085-12.218a40.547 40.547 0 0 0-17.26-4.312A52.813 52.813 0 0 0 2.2 117.327c2.034 1.783 3.5 4.075 4.92 6.296l.367.582c2.946 4.586 6.341 9.2 11.217 11.945 2.991 1.689 6.603 2.731 11.382 3.292 8.271.963 15.951 0 22.203-2.796l.471.985a40.668 40.668 0 0 1-16.572 3.205z"/><path fill="#333" d="M51.143 135.849c-1.36-1.912-3.342-3.299-5.907-4.78-11.377-6.579-24.22-10.461-37.466-11.327l.074-1.071c13.426.882 26.441 4.824 37.967 11.5 2.334 1.351 4.697 2.875 6.26 5.096l-.928.582zM49.863 114.19c-.287-10.072-4.031-19.77-10.649-27.584-6.464-7.51-15.339-12.744-25.232-14.885 1.496 4.312 1.145 9.027.83 13.555-.12 1.74-.246 3.536-.269 5.268-.067 7.398 1.792 14.694 5.407 21.224l-.987.503c-3.685-6.692-5.572-14.163-5.49-21.734 0-1.768.15-3.593.27-5.333.337-4.736.68-9.63-1.092-14.007l-.374-.913 1.002.187c10.533 2.037 20.017 7.493 26.862 15.452 6.775 8 10.608 17.928 10.904 28.239l-1.182.028z"/><path fill="#333" d="M36.772 114.783a128.646 128.646 0 0 0-5.519-18.162 56.465 56.465 0 0 0-9.722-16.25l.853-.72a57.451 57.451 0 0 1 9.93 16.531 129.974 129.974 0 0 1 5.587 18.356l-1.13.245z"/><path fill="#333" d="M31.16 94.759l-11.547-5.261.486-.97 10.186 4.635 1.473-9.178 1.107.166-1.705 10.608zM36.051 109.213l-12.055-5.887.509-.963 10.918 5.333 3.769-10.198 1.054.359-4.195 11.356zM31.776 131.342l-.553-.941 6.693-3.579-3.253-6.21 1.002-.489 3.731 7.137-7.62 4.082zM19.048 126.778l-.493-.97 7.328-3.407-4.935-5.311.837-.719 5.923 6.382-8.66 4.025zM59.803 141.196l-.045-1.093c.02-.078.035-.157.045-.237v-.115l1.338-20.124L78.91 54.684l13.745 4.204-31.753 81.366c-.032.084-.07.165-.112.245l-.987.697zm2.453-21.368l-1.107 16.718 30.04-76.954-11.494-3.514-17.44 63.75z"/><path fill="#333" d="M82.972 83.67l-1.115-.101c0-.08.09-2.034-3.858-3.242-3.95-1.207-5.048.439-5.093.504l-.972-.54c.06-.1 1.533-2.486 6.408-.991 4.876 1.495 4.644 4.255 4.63 4.37zM75.947 71.196l-1.267 4.517 1.083.281 1.267-4.517-1.083-.281zM72.857 82.612l-5.447 19.617 1.084.278 5.446-19.618-1.083-.277zM92.118 59.758l-.388-1.007 14.328-5.131c-.202-2.25-1.817-13.757-13.46-17.329-11.644-3.572-19.908 4.938-21.426 6.656l8.607 12.146-.927.604-9.079-12.794.247-.309c.09-.115 9.25-11.5 22.906-7.33 13.655 4.168 14.299 18.564 14.299 18.686v.388l-15.106 5.42zM36.522 66.08a8.69 8.69 0 0 0-1.246-3.965 9.104 9.104 0 0 0-2.972-3l-.702-.446.702-.445a9.226 9.226 0 0 0 2.96-3.007 8.813 8.813 0 0 0 1.258-3.958h1.122a8.69 8.69 0 0 0 1.246 3.965 9.105 9.105 0 0 0 2.972 3l.703.445-.703.446A9.198 9.198 0 0 0 38.9 62.12a8.782 8.782 0 0 0-1.256 3.96h-1.122zm-2.946-7.41a10.04 10.04 0 0 1 3.507 4.657 10.04 10.04 0 0 1 3.507-4.658 10.04 10.04 0 0 1-3.507-4.657 10.04 10.04 0 0 1-3.507 4.657zM41.855 73.762c-.592 0-1.17-.169-1.662-.485a2.903 2.903 0 0 1-1.102-1.29 2.77 2.77 0 0 1-.17-1.66c.115-.558.4-1.07.818-1.473a3.031 3.031 0 0 1 1.532-.787 3.103 3.103 0 0 1 1.728.164 2.97 2.97 0 0 1 1.343 1.059c.328.473.504 1.028.504 1.597a2.82 2.82 0 0 1-.876 2.033 3.054 3.054 0 0 1-2.115.842zm0-4.636c-.367 0-.726.105-1.031.301a1.8 1.8 0 0 0-.684.801c-.14.326-.176.685-.104 1.031.072.346.25.664.51.912.26.25.591.419.951.487s.734.031 1.072-.105a1.84 1.84 0 0 0 .831-.66c.203-.293.31-.639.31-.992a1.72 1.72 0 0 0-.136-.688 1.779 1.779 0 0 0-.4-.586 1.86 1.86 0 0 0-.605-.392 1.92 1.92 0 0 0-.714-.138v.03zM43.508 66.313a1.8 1.8 0 0 1-.973-.284 1.698 1.698 0 0 1-.644-.754 1.622 1.622 0 0 1-.1-.972c.068-.326.235-.626.48-.861.244-.235.556-.396.895-.46.34-.065.692-.032 1.011.095.32.128.593.343.786.62.192.276.295.601.295.934 0 .446-.185.874-.513 1.19a1.787 1.787 0 0 1-1.237.492zm0-2.286a.647.647 0 0 0-.35.102.61.61 0 0 0-.23.271.582.582 0 0 0 .136.658.652.652 0 0 0 .685.13.623.623 0 0 0 .281-.222.587.587 0 0 0-.078-.762.641.641 0 0 0-.444-.177zM35.05 76.015c-.433 0-.856-.124-1.217-.355a2.126 2.126 0 0 1-.807-.945 2.029 2.029 0 0 1-.125-1.217c.085-.408.294-.784.6-1.078a2.22 2.22 0 0 1 1.122-.576c.425-.082.866-.04 1.266.12.4.159.743.429.983.775.241.346.37.754.37 1.17 0 .558-.231 1.094-.642 1.49-.411.394-.968.616-1.55.616zm0-3.127a1.1 1.1 0 0 0-.594.174 1.037 1.037 0 0 0-.394.463.991.991 0 0 0-.06.594c.042.2.145.383.295.526.15.144.342.241.55.28.207.039.423.018.618-.061.195-.08.362-.212.478-.382a1 1 0 0 0-.139-1.295 1.092 1.092 0 0 0-.754-.299zM59.849 139.888l4.315-11.026 23.84-37.747c.188-.237 1.07-1.092 3.53.432 2.244 1.401 2.004 2.565 1.93 2.781l-.068.137-32.642 45.868a.498.498 0 0 1-.297.242.526.526 0 0 1-.388-.03.492.492 0 0 1-.252-.285.47.47 0 0 1 .032-.372zm5.302-10.508l-2.46 6.296L92.364 93.99c0-.18-.202-.718-1.495-1.523-1.294-.805-1.877-.72-2.012-.72L65.151 129.38z"/><path fill="#333" d="M90.942 98.317l1.428-4.312s0-.618-1.496-1.545c-1.495-.927-2.034-.719-2.034-.683l-.867-.719 14.657-20.562 4.24 2.63-15.928 25.191zm-1.317-7.604c.671.173 1.306.455 1.877.834.602.347 1.13.801 1.556 1.337l12.287-19.406-2.386-1.545-13.334 18.78z"/><path fill="#333" d="M103.341 71.286l-1.114-.123c.052-.41 1.286-10.062 5.78-12.11 1.496-.668 3.126-.46 4.876.625l-.613.906c-1.421-.884-2.662-1.064-3.784-.553-3.934 1.782-5.13 11.183-5.145 11.255zM106.4 73.744l-.584-.92c.09-.05 8.481-4.973 8.548-9.156 0-1.194-.666-2.207-2.094-3.084l.613-.905c1.75 1.078 2.625 2.429 2.603 4.003-.075 4.78-8.72 9.854-9.086 10.062zM11.163 111.947a48.404 48.404 0 0 1-5.75-21.207 48.238 48.238 0 0 1 4.252-21.53c3.059-6.786 7.648-12.834 13.436-17.707 5.788-4.874 12.63-8.45 20.032-10.472l.306 1.035c-10.626 2.923-19.975 9.086-26.64 17.56C10.135 68.1 6.516 78.426 6.49 89.05c-.026 7.797 1.914 15.484 5.654 22.402l-.98.496zM65.254 138.688l-.172-1.064c24.521-3.594 43.015-24.365 43.015-48.248a47.525 47.525 0 0 0-1.256-10.838l1.091-.237a48.004 48.004 0 0 1 .385 20.318c-1.322 6.726-4.07 13.119-8.073 18.781-4.003 5.663-9.175 10.473-15.194 14.133a53.246 53.246 0 0 1-19.796 7.14v.015zM42.73 15.89a9.776 9.776 0 0 1-.114-4.369 9.964 9.964 0 0 1 1.807-4.01A10.448 10.448 0 0 1 47.816 4.6a10.888 10.888 0 0 1 4.35-1.272l.09 1.07a9.74 9.74 0 0 0-3.886 1.137 9.346 9.346 0 0 0-3.032 2.599 8.916 8.916 0 0 0-1.618 3.58 8.748 8.748 0 0 0 .093 3.904l-1.084.273zM44.224 17.978l-1.103.194.722 3.775 1.103-.195-.722-3.774zM91.543 42.832l-1.055-.36a41.607 41.607 0 0 0 1.421-4.635l1.092.252a42.01 42.01 0 0 1-1.458 4.743zM83.863 42.092H82.77a33.529 33.529 0 0 0-.232-4.061l1.114-.122c.156 1.389.226 2.786.21 4.183zM75.993 44.765a8.967 8.967 0 0 0-1.384-2.702l.905-.633a10.143 10.143 0 0 1 1.556 3.019l-1.077.316zM99.674 42.71l-3.197 2.451.7.843 3.197-2.452-.7-.843zM102.687 49.645l-2.84.906.354 1.023 2.839-.906-.353-1.023z"/></svg>
